public/HeroTitle.svg

<svg width="585" height="58" viewBox="0 0 585 58" fill="none" xmlns="http://www.w3.org/2000/svg">
<path d="M15.96 46.024C13.272 46.024 10.5413 45.6827 7.768 45C4.99467 44.36 2.648 43.4853 0.728 42.376L3.032 31.944C5.50667 33.2667 7.81067 34.1413 9.944 34.568C12.12 34.952 14.1253 35.144 15.96 35.144C17.6667 35.144 18.9467 34.8667 19.8 34.312C20.696 33.7573 21.144 33.0107 21.144 32.072C21.144 31.2187 20.6533 30.5573 19.672 30.088C18.6907 29.576 17.4107 29.1067 15.832 28.68C14.296 28.2533 12.6533 27.7627 10.904 27.208C9.15467 26.6107 7.49067 25.8427 5.912 24.904C4.376 23.9227 3.11733 22.6427 2.136 21.064C1.15467 19.4427 0.664 17.416 0.664 14.984C0.664 11.912 1.41067 9.26667 2.904 7.048C4.39733 4.78666 6.53067 3.05866 9.304 1.864C12.0773 0.626666 15.3413 0.00799942 19.096 0.00799942C21.6133 0.00799942 24.0667 0.349332 26.456 1.032C28.888 1.672 30.8293 2.54666 32.28 3.656L30.104 13.064C27.928 12.168 25.9653 11.528 24.216 11.144C22.5093 10.7173 20.888 10.504 19.352 10.504C17.56 10.504 16.1947 10.76 15.256 11.272C14.3173 11.784 13.848 12.4667 13.848 13.32C13.848 14.1307 14.3387 14.792 15.32 15.304C16.3013 15.816 17.56 16.3067 19.096 16.776C20.632 17.2453 22.2747 17.7787 24.024 18.376C25.7733 18.9733 27.416 19.7627 28.952 20.744C30.488 21.7253 31.7467 23.0053 32.728 24.584C33.7093 26.1627 34.2 28.1467 34.2 30.536C34.2 35.4853 32.5787 39.304 29.336 41.992C26.136 44.68 21.6773 46.024 15.96 46.024ZM58.479 36.552C59.7163 36.552 61.0177 36.424 62.383 36.168C63.791 35.912 65.2203 35.4427 66.671 34.76L68.207 43.016C66.6283 43.8267 64.9003 44.4453 63.023 44.872C61.1883 45.2987 59.0763 45.512 56.687 45.512C52.3777 45.512 48.751 44.808 45.807 43.4C42.9057 41.992 40.7083 40.0507 39.215 37.576C37.7217 35.1013 36.975 32.2427 36.975 29C36.975 25.672 37.7643 22.7707 39.343 20.296C40.9643 17.8213 43.119 15.9013 45.807 14.536C48.495 13.1707 51.4603 12.488 54.703 12.488C59.5243 12.488 63.215 14.0027 65.775 17.032C68.335 20.0187 69.615 24.2853 69.615 29.832L50.543 32.264C51.951 35.1227 54.5963 36.552 58.479 36.552ZM49.519 26.376L59.567 24.264C59.3963 22.8987 58.927 21.896 58.159 21.256C57.391 20.5733 56.431 20.232 55.279 20.232C53.5723 20.232 52.207 20.8293 51.183 22.024C50.2017 23.176 49.647 24.6267 49.519 26.376ZM74.075 45V12.936H87.387V19.912C88.3683 17.5227 89.819 15.688 91.739 14.408C93.7017 13.128 96.027 12.488 98.715 12.488C102.896 12.488 106.139 13.9387 108.443 16.84C110.747 19.6987 111.899 23.752 111.899 29V45H98.395V28.296C98.395 24.4987 96.859 22.6 93.787 22.6C91.9523 22.6 90.459 23.2827 89.307 24.648C88.155 25.9707 87.579 27.7627 87.579 30.024V45H74.075ZM132.094 45.512C129.15 45.512 126.483 44.808 124.094 43.4C121.705 41.9493 119.806 39.9653 118.398 37.448C117.033 34.9307 116.35 32.0507 116.35 28.808C116.35 25.5653 117.033 22.728 118.398 20.296C119.806 17.864 121.705 15.9653 124.094 14.6C126.483 13.192 129.15 12.488 132.094 12.488C134.185 12.488 136.19 13.064 138.11 14.216C140.073 15.3253 141.523 17.1387 142.462 19.656V2.824L155.966 0.839996V45H142.59V39.048C141.566 41.1387 140.201 42.7387 138.494 43.848C136.787 44.9573 134.654 45.512 132.094 45.512ZM136.254 35.4C138.003 35.4 139.497 34.7813 140.734 33.544C141.971 32.264 142.59 30.7067 142.59 28.872C142.59 27.0373 141.971 25.544 140.734 24.392C139.497 23.1973 138.003 22.6 136.254 22.6C134.419 22.6 132.883 23.2187 131.646 24.456C130.409 25.6933 129.79 27.208 129.79 29C129.79 30.792 130.409 32.3067 131.646 33.544C132.883 34.7813 134.419 35.4 136.254 35.4ZM168.34 45.384C165.993 45.384 164.201 44.7653 162.964 43.528C161.726 42.248 161.108 40.6907 161.108 38.856C161.108 36.9787 161.769 35.4427 163.092 34.248C164.414 33.0107 166.164 32.392 168.34 32.392C170.516 32.392 172.244 33.032 173.524 34.312C174.846 35.592 175.508 37.1067 175.508 38.856C175.508 40.8187 174.889 42.3973 173.652 43.592C172.457 44.7867 170.686 45.384 168.34 45.384ZM206.335 46.024C203.647 46.024 200.916 45.6827 198.143 45C195.37 44.36 193.023 43.4853 191.103 42.376L193.407 31.944C195.882 33.2667 198.186 34.1413 200.319 34.568C202.495 34.952 204.5 35.144 206.335 35.144C208.042 35.144 209.322 34.8667 210.175 34.312C211.071 33.7573 211.519 33.0107 211.519 32.072C211.519 31.2187 211.028 30.5573 210.047 30.088C209.066 29.576 207.786 29.1067 206.207 28.68C204.671 28.2533 203.028 27.7627 201.279 27.208C199.53 26.6107 197.866 25.8427 196.287 24.904C194.751 23.9227 193.492 22.6427 192.511 21.064C191.53 19.4427 191.039 17.416 191.039 14.984C191.039 11.912 191.786 9.26667 193.279 7.048C194.772 4.78666 196.906 3.05866 199.679 1.864C202.452 0.626666 205.716 0.00799942 209.471 0.00799942C211.988 0.00799942 214.442 0.349332 216.831 1.032C219.263 1.672 221.204 2.54666 222.655 3.656L220.479 13.064C218.303 12.168 216.34 11.528 214.591 11.144C212.884 10.7173 211.263 10.504 209.727 10.504C207.935 10.504 206.57 10.76 205.631 11.272C204.692 11.784 204.223 12.4667 204.223 13.32C204.223 14.1307 204.714 14.792 205.695 15.304C206.676 15.816 207.935 16.3067 209.471 16.776C211.007 17.2453 212.65 17.7787 214.399 18.376C216.148 18.9733 217.791 19.7627 219.327 20.744C220.863 21.7253 222.122 23.0053 223.103 24.584C224.084 26.1627 224.575 28.1467 224.575 30.536C224.575 35.4853 222.954 39.304 219.711 41.992C216.511 44.68 212.052 46.024 206.335 46.024ZM228.638 45V2.824L242.142 0.839996V19.528C243.038 17.3093 244.446 15.5813 246.366 14.344C248.286 13.1067 250.59 12.488 253.278 12.488C257.459 12.488 260.702 13.9387 263.006 16.84C265.31 19.6987 266.462 23.752 266.462 29V45H252.958V28.296C252.958 24.4987 251.422 22.6 248.35 22.6C246.515 22.6 245.022 23.2827 243.87 24.648C242.718 25.9707 242.142 27.7627 242.142 30.024V45H228.638ZM289.345 45.512C285.718 45.512 282.518 44.808 279.745 43.4C276.971 41.992 274.795 40.0507 273.217 37.576C271.681 35.0587 270.913 32.1787 270.913 28.936C270.913 25.608 271.702 22.728 273.281 20.296C274.902 17.8213 277.099 15.9013 279.873 14.536C282.646 13.1707 285.825 12.488 289.409 12.488C293.078 12.488 296.299 13.192 299.073 14.6C301.846 15.9653 304.001 17.8853 305.537 20.36C307.073 22.792 307.841 25.6507 307.841 28.936C307.841 32.2213 307.051 35.1227 305.472 37.64C303.937 40.1147 301.782 42.056 299.009 43.464C296.235 44.8293 293.014 45.512 289.345 45.512ZM289.473 35.912C291.222 35.912 292.651 35.272 293.761 33.992C294.913 32.6693 295.489 30.984 295.489 28.936C295.489 26.888 294.934 25.224 293.825 23.944C292.715 22.6213 291.307 21.96 289.601 21.96C287.766 21.96 286.273 22.6213 285.121 23.944C284.011 25.224 283.457 26.888 283.457 28.936C283.457 30.984 284.011 32.6693 285.121 33.992C286.273 35.272 287.723 35.912 289.473 35.912ZM326.142 55.112L312.638 57.096V12.936H325.95V19.912C327.059 17.2667 328.574 15.368 330.494 14.216C332.456 13.064 334.483 12.488 336.574 12.488C339.56 12.488 342.227 13.192 344.574 14.6C346.963 15.9653 348.84 17.864 350.206 20.296C351.614 22.728 352.318 25.5653 352.318 28.808C352.318 32.0507 351.614 34.9307 350.206 37.448C348.84 39.9653 346.963 41.9493 344.574 43.4C342.227 44.808 339.56 45.512 336.574 45.512C334.014 45.512 331.88 44.9573 330.174 43.848C328.467 42.7387 327.123 41.1387 326.142 39.048V55.112ZM332.414 35.4C334.248 35.4 335.784 34.7813 337.022 33.544C338.259 32.3067 338.878 30.792 338.878 29C338.878 27.208 338.259 25.6933 337.022 24.456C335.784 23.2187 334.248 22.6 332.414 22.6C330.664 22.6 329.171 23.1973 327.934 24.392C326.696 25.544 326.078 27.0373 326.078 28.872C326.078 30.7067 326.696 32.264 327.934 33.544C329.171 34.7813 330.664 35.4 332.414 35.4ZM362.465 45.384C360.118 45.384 358.326 44.7653 357.089 43.528C355.851 42.248 355.233 40.6907 355.233 38.856C355.233 36.9787 355.894 35.4427 357.217 34.248C358.539 33.0107 360.289 32.392 362.465 32.392C364.641 32.392 366.369 33.032 367.649 34.312C368.971 35.592 369.633 37.1067 369.633 38.856C369.633 40.8187 369.014 42.3973 367.777 43.592C366.582 44.7867 364.811 45.384 362.465 45.384ZM400.46 46.024C397.772 46.024 395.041 45.6827 392.268 45C389.495 44.36 387.148 43.4853 385.228 42.376L387.532 31.944C390.007 33.2667 392.311 34.1413 394.444 34.568C396.62 34.952 398.625 35.144 400.46 35.144C402.167 35.144 403.447 34.8667 404.3 34.312C405.196 33.7573 405.644 33.0107 405.644 32.072C405.644 31.2187 405.153 30.5573 404.172 30.088C403.191 29.576 401.911 29.1067 400.332 28.68C398.796 28.2533 397.153 27.7627 395.404 27.208C393.655 26.6107 391.991 25.8427 390.412 24.904C388.876 23.9227 387.617 22.6427 386.636 21.064C385.655 19.4427 385.164 17.416 385.164 14.984C385.164 11.912 385.911 9.26667 387.404 7.048C388.897 4.78666 391.031 3.05866 393.804 1.864C396.577 0.626666 399.841 0.00799942 403.596 0.00799942C406.113 0.00799942 408.567 0.349332 410.956 1.032C413.388 1.672 415.329 2.54666 416.78 3.656L414.604 13.064C412.428 12.168 410.465 11.528 408.716 11.144C407.009 10.7173 405.388 10.504 403.852 10.504C402.06 10.504 400.695 10.76 399.756 11.272C398.817 11.784 398.348 12.4667 398.348 13.32C398.348 14.1307 398.839 14.792 399.82 15.304C400.801 15.816 402.06 16.3067 403.596 16.776C405.132 17.2453 406.775 17.7787 408.524 18.376C410.273 18.9733 411.916 19.7627 413.452 20.744C414.988 21.7253 416.247 23.0053 417.228 24.584C418.209 26.1627 418.7 28.1467 418.7 30.536C418.7 35.4853 417.079 39.304 413.836 41.992C410.636 44.68 406.177 46.024 400.46 46.024ZM436.267 55.112L422.763 57.096V12.936H436.075V19.912C437.184 17.2667 438.699 15.368 440.619 14.216C442.581 13.064 444.608 12.488 446.699 12.488C449.685 12.488 452.352 13.192 454.699 14.6C457.088 15.9653 458.965 17.864 460.331 20.296C461.739 22.728 462.443 25.5653 462.443 28.808C462.443 32.0507 461.739 34.9307 460.331 37.448C458.965 39.9653 457.088 41.9493 454.699 43.4C452.352 44.808 449.685 45.512 446.699 45.512C444.139 45.512 442.005 44.9573 440.299 43.848C438.592 42.7387 437.248 41.1387 436.267 39.048V55.112ZM442.539 35.4C444.373 35.4 445.909 34.7813 447.147 33.544C448.384 32.3067 449.003 30.792 449.003 29C449.003 27.208 448.384 25.6933 447.147 24.456C445.909 23.2187 444.373 22.6 442.539 22.6C440.789 22.6 439.296 23.1973 438.059 24.392C436.821 25.544 436.203 27.0373 436.203 28.872C436.203 30.7067 436.821 32.264 438.059 33.544C439.296 34.7813 440.789 35.4 442.539 35.4ZM487.167 36.552C488.404 36.552 489.705 36.424 491.071 36.168C492.479 35.912 493.908 35.4427 495.359 34.76L496.895 43.016C495.316 43.8267 493.588 44.4453 491.711 44.872C489.876 45.2987 487.764 45.512 485.375 45.512C481.065 45.512 477.439 44.808 474.495 43.4C471.593 41.992 469.396 40.0507 467.903 37.576C466.409 35.1013 465.663 32.2427 465.663 29C465.663 25.672 466.452 22.7707 468.031 20.296C469.652 17.8213 471.807 15.9013 474.495 14.536C477.183 13.1707 480.148 12.488 483.391 12.488C488.212 12.488 491.903 14.0027 494.463 17.032C497.023 20.0187 498.303 24.2853 498.303 29.832L479.231 32.264C480.639 35.1227 483.284 36.552 487.167 36.552ZM478.207 26.376L488.255 24.264C488.084 22.8987 487.615 21.896 486.847 21.256C486.079 20.5733 485.119 20.232 483.967 20.232C482.26 20.232 480.895 20.8293 479.871 22.024C478.889 23.176 478.335 24.6267 478.207 26.376ZM502.763 45V12.936H516.075V19.912C517.056 17.5227 518.507 15.688 520.427 14.408C522.389 13.128 524.715 12.488 527.403 12.488C531.584 12.488 534.827 13.9387 537.131 16.84C539.435 19.6987 540.587 23.752 540.587 29V45H527.083V28.296C527.083 24.4987 525.547 22.6 522.475 22.6C520.64 22.6 519.147 23.2827 517.995 24.648C516.843 25.9707 516.267 27.7627 516.267 30.024V45H502.763ZM560.782 45.512C557.838 45.512 555.171 44.808 552.782 43.4C550.392 41.9493 548.494 39.9653 547.086 37.448C545.72 34.9307 545.038 32.0507 545.038 28.808C545.038 25.5653 545.72 22.728 547.086 20.296C548.494 17.864 550.392 15.9653 552.782 14.6C555.171 13.192 557.838 12.488 560.782 12.488C562.872 12.488 564.878 13.064 566.798 14.216C568.76 15.3253 570.211 17.1387 571.15 19.656V2.824L584.654 0.839996V45H571.278V39.048C570.254 41.1387 568.888 42.7387 567.182 43.848C565.475 44.9573 563.342 45.512 560.782 45.512ZM564.942 35.4C566.691 35.4 568.184 34.7813 569.422 33.544C570.659 32.264 571.278 30.7067 571.278 28.872C571.278 27.0373 570.659 25.544 569.422 24.392C568.184 23.1973 566.691 22.6 564.942 22.6C563.107 22.6 561.571 23.2187 560.333 24.456C559.096 25.6933 558.478 27.208 558.478 29C558.478 30.792 559.096 32.3067 560.333 33.544C561.571 34.7813 563.107 35.4 564.942 35.4Z" fill="white"/>
</svg>

<svg xmlns="http://www.w3.org/2000/svg" width="585" height="58" fill="none"><path fill="#fff" d="M15.96 46.024q-4.032 0-8.192-1.024-4.16-.96-7.04-2.624l2.304-10.432q3.713 1.984 6.912 2.624 3.264.576 6.016.576 2.56 0 3.84-.832 1.344-.832 1.344-2.24 0-1.28-1.472-1.984-1.472-.768-3.84-1.408a143 143 0 0 1-4.928-1.472 26.5 26.5 0 0 1-4.992-2.304 12 12 0 0 1-3.776-3.84Q.664 18.632.664 14.984q0-4.608 2.24-7.936 2.24-3.392 6.4-5.184Q13.464.008 19.096.008q3.775 0 7.36 1.024 3.648.96 5.824 2.624l-2.176 9.408q-3.264-1.344-5.888-1.92-2.56-.64-4.864-.64-2.688 0-4.096.768t-1.408 2.048q0 1.215 1.472 1.984t3.776 1.472q2.304.705 4.928 1.6a22.8 22.8 0 0 1 4.928 2.368 12 12 0 0 1 3.776 3.84q1.472 2.369 1.472 5.952 0 7.425-4.864 11.456-4.8 4.032-13.376 4.032m42.519-9.472q1.856 0 3.904-.384 2.112-.384 4.288-1.408l1.536 8.256q-2.368 1.216-5.184 1.856-2.752.64-6.336.64-6.465 0-10.88-2.112-4.352-2.113-6.592-5.824-2.24-3.712-2.24-8.576 0-4.992 2.368-8.704 2.432-3.712 6.464-5.76t8.896-2.048q7.232 0 11.072 4.544 3.84 4.48 3.84 12.8l-19.072 2.432q2.112 4.288 7.936 4.288m-8.96-10.176 10.048-2.112q-.255-2.048-1.408-3.008-1.152-1.024-2.88-1.024-2.56 0-4.096 1.792-1.472 1.728-1.664 4.352M74.075 45V12.936h13.312v6.976q1.472-3.585 4.352-5.504 2.944-1.92 6.976-1.92 6.272 0 9.728 4.352 3.456 4.288 3.456 12.16v16H98.395V28.296q0-5.696-4.608-5.696-2.752 0-4.48 2.048-1.728 1.984-1.728 5.376V45zm58.019.512q-4.416 0-8-2.112-3.584-2.176-5.696-5.952-2.048-3.776-2.048-8.64t2.048-8.512q2.112-3.648 5.696-5.696 3.584-2.112 8-2.112 3.136 0 6.016 1.728 2.944 1.665 4.352 5.44V2.824L155.966.84V45H142.59v-5.952q-1.536 3.135-4.096 4.8t-6.4 1.664m4.16-10.112q2.624 0 4.48-1.856 1.856-1.92 1.856-4.672t-1.856-4.48q-1.856-1.792-4.48-1.792-2.753 0-4.608 1.856-1.856 1.856-1.856 4.544t1.856 4.544q1.855 1.856 4.608 1.856m32.086 9.984q-3.52 0-5.376-1.856-1.856-1.92-1.856-4.672 0-2.816 1.984-4.608 1.984-1.856 5.248-1.856t5.184 1.92q1.983 1.92 1.984 4.544 0 2.944-1.856 4.736-1.793 1.792-5.312 1.792m37.995.64q-4.032 0-8.192-1.024-4.16-.96-7.04-2.624l2.304-10.432q3.712 1.984 6.912 2.624 3.264.576 6.016.576 2.56 0 3.84-.832 1.344-.832 1.344-2.24 0-1.28-1.472-1.984-1.472-.768-3.84-1.408a143 143 0 0 1-4.928-1.472 26.5 26.5 0 0 1-4.992-2.304 12 12 0 0 1-3.776-3.84q-1.472-2.432-1.472-6.08 0-4.608 2.24-7.936 2.24-3.392 6.4-5.184 4.16-1.856 9.792-1.856 3.776 0 7.36 1.024 3.648.96 5.824 2.624l-2.176 9.408q-3.264-1.344-5.888-1.92-2.56-.64-4.864-.64-2.688 0-4.096.768t-1.408 2.048q0 1.215 1.472 1.984t3.776 1.472q2.304.705 4.928 1.6a22.8 22.8 0 0 1 4.928 2.368 12 12 0 0 1 3.776 3.84q1.472 2.369 1.472 5.952 0 7.425-4.864 11.456-4.8 4.032-13.376 4.032M228.638 45V2.824L242.142.84v18.688q1.344-3.328 4.224-5.184t6.912-1.856q6.272 0 9.728 4.352 3.456 4.288 3.456 12.16v16h-13.504V28.296q0-5.696-4.608-5.696-2.752 0-4.48 2.048-1.728 1.984-1.728 5.376V45zm60.707.512q-5.44 0-9.6-2.112-4.161-2.113-6.528-5.824-2.304-3.776-2.304-8.64 0-4.992 2.368-8.64 2.431-3.712 6.592-5.76t9.536-2.048q5.503 0 9.664 2.112 4.16 2.047 6.464 5.76 2.304 3.647 2.304 8.576 0 4.928-2.369 8.704-2.303 3.712-6.463 5.824-4.16 2.048-9.664 2.048m.128-9.6q2.623 0 4.288-1.92 1.728-1.984 1.728-5.056t-1.664-4.992q-1.665-1.984-4.224-1.984-2.752 0-4.48 1.984-1.664 1.92-1.664 4.992t1.664 5.056q1.727 1.92 4.352 1.92m36.669 19.2-13.504 1.984v-44.16h13.312v6.976q1.664-3.968 4.544-5.696 2.943-1.728 6.08-1.728 4.48 0 8 2.112 3.583 2.048 5.632 5.696 2.112 3.648 2.112 8.512t-2.112 8.64q-2.049 3.776-5.632 5.952-3.52 2.112-8 2.112-3.84 0-6.4-1.664-2.56-1.665-4.032-4.8zm6.272-19.712q2.751 0 4.608-1.856T338.878 29q0-2.688-1.856-4.544t-4.608-1.856q-2.625 0-4.48 1.792-1.856 1.728-1.856 4.48t1.856 4.672q1.855 1.856 4.48 1.856m30.051 9.984q-3.52 0-5.376-1.856-1.856-1.92-1.856-4.672 0-2.816 1.984-4.608 1.984-1.856 5.248-1.856t5.184 1.92q1.983 1.92 1.984 4.544 0 2.944-1.856 4.736-1.793 1.792-5.312 1.792m37.995.64q-4.032 0-8.192-1.024-4.16-.96-7.04-2.624l2.304-10.432q3.713 1.984 6.912 2.624 3.264.576 6.016.576 2.56 0 3.84-.832 1.344-.832 1.344-2.24 0-1.28-1.472-1.984-1.472-.768-3.84-1.408a143 143 0 0 1-4.928-1.472 26.5 26.5 0 0 1-4.992-2.304 12 12 0 0 1-3.776-3.84q-1.472-2.432-1.472-6.08 0-4.608 2.24-7.936 2.24-3.392 6.4-5.184 4.16-1.856 9.792-1.856 3.776 0 7.36 1.024 3.648.96 5.824 2.624l-2.176 9.408q-3.264-1.344-5.888-1.92-2.56-.64-4.864-.64-2.688 0-4.096.768t-1.408 2.048q0 1.215 1.472 1.984t3.776 1.472q2.304.705 4.928 1.6a22.8 22.8 0 0 1 4.928 2.368 12 12 0 0 1 3.776 3.84q1.472 2.369 1.472 5.952 0 7.425-4.864 11.456-4.8 4.032-13.376 4.032m35.807 9.088-13.504 1.984v-44.16h13.312v6.976q1.664-3.968 4.544-5.696 2.943-1.728 6.08-1.728 4.48 0 8 2.112 3.583 2.048 5.632 5.696 2.112 3.648 2.112 8.512t-2.112 8.64q-2.049 3.776-5.632 5.952-3.52 2.112-8 2.112-3.84 0-6.4-1.664-2.56-1.665-4.032-4.8zm6.272-19.712q2.751 0 4.608-1.856T449.003 29q0-2.688-1.856-4.544t-4.608-1.856q-2.625 0-4.48 1.792-1.856 1.728-1.856 4.48t1.856 4.672q1.855 1.856 4.48 1.856m44.628 1.152q1.855 0 3.904-.384 2.112-.384 4.288-1.408l1.536 8.256q-2.369 1.216-5.184 1.856-2.752.64-6.336.64-6.465 0-10.88-2.112-4.353-2.113-6.592-5.824-2.24-3.712-2.24-8.576 0-4.992 2.368-8.704 2.432-3.712 6.464-5.76t8.896-2.048q7.232 0 11.072 4.544 3.84 4.48 3.84 12.8l-19.072 2.432q2.112 4.288 7.936 4.288m-8.96-10.176 10.048-2.112q-.256-2.048-1.408-3.008-1.152-1.024-2.88-1.024-2.56 0-4.096 1.792-1.473 1.728-1.664 4.352M502.763 45V12.936h13.312v6.976q1.472-3.585 4.352-5.504 2.943-1.92 6.976-1.92 6.272 0 9.728 4.352 3.456 4.288 3.456 12.16v16h-13.504V28.296q0-5.696-4.608-5.696-2.752 0-4.48 2.048-1.728 1.984-1.728 5.376V45zm58.019.512q-4.416 0-8-2.112-3.585-2.176-5.696-5.952-2.048-3.776-2.048-8.64t2.048-8.512q2.111-3.648 5.696-5.696 3.584-2.112 8-2.112 3.135 0 6.016 1.728 2.943 1.665 4.352 5.44V2.824L584.654.84V45h-13.376v-5.952q-1.536 3.135-4.096 4.8t-6.4 1.664m4.16-10.112q2.623 0 4.48-1.856 1.856-1.92 1.856-4.672t-1.856-4.48q-1.857-1.792-4.48-1.792-2.752 0-4.609 1.856-1.855 1.856-1.855 4.544t1.855 4.544q1.857 1.856 4.609 1.856"/></svg>
